!! 00000] TT[WS
!!!OTL: Pie baicai
!!!ARE: Asia, China, Shanxi Yanbei
!! Ethnic Group: Han
!! WII, 78 (2)
!!!SCT: J0515
!!!YEM: Copyright 1995, estate of Helmut Schaffrath.
**kern
*ICvox
*Ivox
*M2/4
*k[f#]
*G:
{8g
8g
8g
8e
=1
8ee
16gg
16ee
4dd
=2
8ee
8dd
8cc
16b
16a
=3
2g}
=4
{8b
8b
8dd
16b
16a
=5
8g
8b
4a
=6
8ee
8aa
16gg
16aa
16gg
16ee
=7
2dd}
=8
{8g
8g
8g
8e
=9
8ee
8gg
4dd
=10
8ee
8dd
16cc
16cc
16cc
16a
=11
2g}
==
!!!AGN: Xiaodiao. Qingge, Sichun
!!!ONB: ESAC (Essen Associative Code) Database: CHINA
!!!AMT: simple duple
!!!AIN: vox
!!!EED: Helmut Schaffrath
!!!EEV: 1.0
*-
